icons/svg/landuse/industrial.svg

<?xml version="1.0" encoding="UTF-8" standalone="no"?>
<!-- Created with Inkscape (http://www.inkscape.org/) -->

<svg
   xmlns:dc="http://purl.org/dc/elements/1.1/"
   xmlns:cc="http://creativecommons.org/ns#"
   xmlns:rdf="http://www.w3.org/1999/02/22-rdf-syntax-ns#"
   xmlns:svg="http://www.w3.org/2000/svg"
   xmlns="http://www.w3.org/2000/svg"
   xmlns:sodipodi="http://sodipodi.sourceforge.net/DTD/sodipodi-0.dtd"
   xmlns:inkscape="http://www.inkscape.org/namespaces/inkscape"
   version="1.0"
   width="580"
   height="580"
   id="svg2"
   sodipodi:version="0.32"
   inkscape:version="0.91 r"
   sodipodi:docname="industrial.svg"
   inkscape:output_extension="org.inkscape.output.svg.inkscape">
  <metadata
     id="metadata10">
    <rdf:RDF>
      <cc:Work
         rdf:about="">
        <dc:format>image/svg+xml</dc:format>
        <dc:type
           rdf:resource="http://purl.org/dc/dcmitype/StillImage" />
        <cc:license
           rdf:resource="http://web.resource.org/cc/PublicDomain" />
        <dc:language>en</dc:language>
        <dc:title></dc:title>
      </cc:Work>
    </rdf:RDF>
  </metadata>
  <sodipodi:namedview
     inkscape:window-height="1051"
     inkscape:window-width="1920"
     inkscape:pageshadow="2"
     inkscape:pageopacity="0.0"
     guidetolerance="10.0"
     gridtolerance="10.0"
     objecttolerance="10.0"
     borderopacity="1.0"
     bordercolor="#666666"
     pagecolor="#ffffff"
     id="base"
     showgrid="false"
     inkscape:zoom="0.35355339"
     inkscape:cx="665.12207"
     inkscape:cy="241.72049"
     inkscape:window-x="3600"
     inkscape:window-y="0"
     inkscape:current-layer="svg2"
     showguides="true"
     inkscape:guide-bbox="true"
     inkscape:window-maximized="1" />
  <defs
     id="defs4">
    <inkscape:perspective
       sodipodi:type="inkscape:persp3d"
       inkscape:vp_x="0 : 290 : 1"
       inkscape:vp_y="0 : 1000 : 0"
       inkscape:vp_z="580 : 290 : 1"
       inkscape:persp3d-origin="290 : 193.33333 : 1"
       id="perspective12" />
    <style
       type="text/css"
       id="style6">
   
    .fil0 {fill:#EF7900}
   
  </style>
    <inkscape:perspective
       id="perspective6807"
       inkscape:persp3d-origin="29.116032 : 19.410688 : 1"
       inkscape:vp_z="58.232063 : 29.116032 : 1"
       inkscape:vp_y="0 : 1000 : 0"
       inkscape:vp_x="0 : 29.116032 : 1"
       sodipodi:type="inkscape:persp3d" />
    <inkscape:perspective
       id="perspective6954"
       inkscape:persp3d-origin="290 : 193.33333 : 1"
       inkscape:vp_z="580 : 290 : 1"
       inkscape:vp_y="0 : 1000 : 0"
       inkscape:vp_x="0 : 290 : 1"
       sodipodi:type="inkscape:persp3d" />
    <inkscape:perspective
       id="perspective2541"
       inkscape:persp3d-origin="240 : 160 : 1"
       inkscape:vp_z="480 : 240 : 1"
       inkscape:vp_y="0 : 1000 : 0"
       inkscape:vp_x="0 : 240 : 1"
       sodipodi:type="inkscape:persp3d" />
    <inkscape:perspective
       id="perspective2750"
       inkscape:persp3d-origin="215 : 143.33333 : 1"
       inkscape:vp_z="430 : 215 : 1"
       inkscape:vp_y="0 : 1000 : 0"
       inkscape:vp_x="0 : 215 : 1"
       sodipodi:type="inkscape:persp3d" />
    <inkscape:perspective
       id="perspective2830"
       inkscape:persp3d-origin="0.5 : 0.33333333 : 1"
       inkscape:vp_z="1 : 0.5 : 1"
       inkscape:vp_y="0 : 1000 : 0"
       inkscape:vp_x="0 : 0.5 : 1"
       sodipodi:type="inkscape:persp3d" />
    <inkscape:perspective
       id="perspective3648"
       inkscape:persp3d-origin="0.5 : 0.33333333 : 1"
       inkscape:vp_z="1 : 0.5 : 1"
       inkscape:vp_y="0 : 1000 : 0"
       inkscape:vp_x="0 : 0.5 : 1"
       sodipodi:type="inkscape:persp3d" />
    <inkscape:perspective
       id="perspective3675"
       inkscape:persp3d-origin="0.5 : 0.33333333 : 1"
       inkscape:vp_z="1 : 0.5 : 1"
       inkscape:vp_y="0 : 1000 : 0"
       inkscape:vp_x="0 : 0.5 : 1"
       sodipodi:type="inkscape:persp3d" />
    <inkscape:perspective
       id="perspective3736"
       inkscape:persp3d-origin="0.5 : 0.33333333 : 1"
       inkscape:vp_z="1 : 0.5 : 1"
       inkscape:vp_y="0 : 1000 : 0"
       inkscape:vp_x="0 : 0.5 : 1"
       sodipodi:type="inkscape:persp3d" />
  </defs>
  <g
     id="g1327">
    <path
       d="M 66.275,1.768 C 24.94,1.768 1.704,23.139 1.704,66.804 L 1.704,516.927 C 1.704,557.771 22.598,579.156 63.896,579.156 L 515.92,579.156 C 557.227,579.156 578.149,558.84 578.149,516.927 L 578.149,66.804 C 578.149,24.203 557.227,1.768 514.627,1.768 C 514.624,1.768 66.133,1.625 66.275,1.768 z"
       style="fill:#111111;stroke:#eeeeee;stroke-width:3.40799999"
       id="path1329" />
  </g>
  <path
     inkscape:connector-curvature="0"
     d="M 478.3333,141 420,141 l -45.25,354.46667 -7.5333,-193.3 -39.55,0 0,-94.16667 -131.83337,94.16667 0,-94.16667 L 64,302.16667 l 0,226 0,18.83333 301.3333,0 18.8334,0 L 516,547 Z m -320.16663,349.5 -37.66667,0 0,-56.5 37.66667,0 z m 0,-94.16667 -37.66667,0 0,-56.5 37.66667,0 z M 233.5,490.5 l -37.66667,0 0,-56.5 37.66667,0 z m 0,-94.16667 -37.66667,0 0,-56.5 37.66667,0 z m 75.3333,94.16667 -37.6666,0 0,-56.5 37.6666,0 z m 0,-94.16667 -37.6666,0 0,-56.5 37.6666,0 z"
     id="path4"
     style="fill:#ffffff;fill-opacity:1;stroke:none"
     sodipodi:nodetypes="ccccccccccccccccccccccccccccccccccccccccccccc" />
  <path
     style="fill:#ffffff;fill-opacity:1;stroke:none"
     d="m 432.52251,89.18855 c -10.07944,-7.962981 -10.45187,-7.599556 -23.71561,-15.346038 -13.26375,-7.746478 -52.46736,-7.170798 -52.46736,-7.170798 0,0 -25.36755,-30.713808 -66.98939,-37.66136 -41.62186,-6.947557 -42.51552,9.280153 -42.51552,9.280153 0,0 -148.232359,-41.7938009 -142.15068,16.260394 3.9421,20.384875 24.50585,13.103365 24.50585,13.103365 0,0 -34.657898,48.731574 146.8248,30.183224 0,0 -9.82646,10.07242 23.10918,15.13946 32.93563,5.06703 73.87025,-7.7397 73.87025,-7.7397 0,0 2.85448,12.62776 54.35167,10.19844 12.86426,3.80234 40.58335,2.76288 42.83149,-2.12958 0,0 -5.67349,-17.51446 -22.39078,-16.06328 -0.15406,1.0496 -10.1137,-3.98551 -15.2639,-8.05428 z"
     id="path3756"
     inkscape:connector-curvature="0"
     sodipodi:nodetypes="sscscccczccccs" />
</svg>

<svg width="580" height="580" viewBox="0 0 580 580" fill="none" xmlns="http://www.w3.org/2000/svg">
<g clip-path="url(#clip0)">
<path d="M66.2751 1.76802C24.9401 1.76802 1.7041 23.139 1.7041 66.804V516.927C1.7041 557.771 22.5981 579.156 63.8961 579.156H515.92C557.227 579.156 578.149 558.84 578.149 516.927V66.804C578.149 24.203 557.227 1.76802 514.627 1.76802C514.624 1.76802 66.1331 1.62502 66.2751 1.76802Z" fill="#111111" stroke="#EEEEEE" stroke-width="3.408"/>
<path d="M478.333 141H420L374.75 495.467L367.217 302.167H327.667V208L195.833 302.167V208L64 302.167V528.167V547H365.333H384.167H516L478.333 141ZM158.167 490.5H120.5V434H158.167V490.5ZM158.167 396.333H120.5V339.833H158.167V396.333ZM233.5 490.5H195.833V434H233.5V490.5ZM233.5 396.333H195.833V339.833H233.5V396.333ZM308.833 490.5H271.167V434H308.833V490.5ZM308.833 396.333H271.167V339.833H308.833V396.333Z" fill="white"/>
<path d="M432.522 89.1885C422.443 81.2256 422.071 81.589 408.807 73.8425C395.543 66.096 356.339 66.6717 356.339 66.6717C356.339 66.6717 330.972 35.9579 289.35 29.0103C247.728 22.0628 246.835 38.2905 246.835 38.2905C246.835 38.2905 98.6022 -3.50331 104.684 54.5509C108.626 74.9358 129.19 67.6543 129.19 67.6543C129.19 67.6543 94.5318 116.386 276.014 97.8375C276.014 97.8375 266.188 107.91 299.124 112.977C332.059 118.044 372.994 105.237 372.994 105.237C372.994 105.237 375.848 117.865 427.346 115.436C440.21 119.238 467.929 118.199 470.177 113.306C470.177 113.306 464.504 95.7916 447.786 97.2428C447.632 98.2924 437.673 93.2573 432.522 89.1885V89.1885Z" fill="white"/>
</g>
<defs>
<clipPath id="clip0">
<path d="M0 0H580V580H0V0Z" fill="white"/>
</clipPath>
</defs>
</svg>
